assets/logos/wesuggest.svg

<svg width="96" height="13" viewBox="0 0 96 13" fill="none" xmlns="http://www.w3.org/2000/svg">
<g clip-path="url(#clip0_43_194)">
<path d="M58.0881 7.58336C57.8169 7.31253 57.5458 7.0417 57.383 6.66253C56.6237 5.03753 57.1661 2.9792 59.0102 2.11253C60.0949 1.62503 61.1797 1.62503 62.2644 2.05836H62.4271L62.4813 2.0042C62.7525 1.24586 63.2949 0.920862 64.0542 0.812528L65.139 0.758362V2.60003H64.6508L64.2169 2.6542C64.0722 2.7159 63.9427 2.80832 63.8373 2.92503V3.3042C64.14 3.76955 64.3245 4.30161 64.3748 4.85426C64.4251 5.40691 64.3397 5.96348 64.126 6.47572C63.9123 6.98796 63.5767 7.44043 63.1483 7.7939C62.72 8.14737 62.2118 8.39118 61.6678 8.5042C61.0169 8.6667 60.3119 8.6667 59.6068 8.45003C59.5478 8.43603 59.4861 8.43876 59.4286 8.4579C59.3711 8.47704 59.3201 8.51183 59.2814 8.55836C59.1186 8.77503 59.0102 8.9917 59.0644 9.26253C59.1729 9.53336 59.3356 9.6417 59.6068 9.69586H62.4813C63.1322 9.69586 63.783 9.91253 64.3254 10.2917C64.8794 10.7155 65.2485 11.3363 65.3559 12.025L63.2949 12.5667V12.4584C63.1864 12.025 62.861 11.8084 62.4271 11.7H59.4441C58.9244 11.6987 58.4161 11.5483 57.9797 11.2667C57.3288 10.8334 57.0034 10.1834 57.0576 9.42503C57.0783 9.08114 57.1769 8.74644 57.3461 8.44618C57.5152 8.14592 57.7504 7.88794 58.0339 7.6917L58.0881 7.58336ZM60.7458 6.7167H61.1797C61.4294 6.666 61.6623 6.55336 61.857 6.38915C62.0517 6.22493 62.2019 6.01443 62.2937 5.77703C62.3856 5.53962 62.4161 5.28295 62.3826 5.03066C62.349 4.77838 62.2524 4.53858 62.1017 4.33336C61.9592 4.11831 61.766 3.94158 61.539 3.81877C61.312 3.69597 61.0582 3.63086 60.8 3.6292C60.4607 3.60131 60.1213 3.68039 59.8294 3.85529C59.5375 4.0302 59.3079 4.29212 59.1729 4.6042C58.8474 5.5792 59.4983 6.77086 60.7458 6.77086V6.7167Z" fill="#F1F1F1"/>
<path d="M18.278 1.95001H20.6102L22.2373 7.15001L23.8644 1.95001H25.9254L27.5525 7.15001L29.1796 1.95001H31.3491L28.6373 9.75001H26.522L24.8949 4.44168H24.8407L23.2135 9.75001H21.1525L18.278 1.95001Z" fill="#F1F1F1"/>
<path d="M33.6271 6.55414C33.9525 7.36664 34.4407 7.90831 35.2542 8.07081C35.7455 8.20248 36.2637 8.1963 36.7517 8.05296C37.2397 7.90961 37.6786 7.63465 38.0203 7.25831H38.0746L39.4305 8.34164L39.0508 8.77498C38.3529 9.38749 37.4804 9.76633 36.5559 9.85831C35.5254 10.0208 34.5491 9.85831 33.6271 9.37081C32.8973 8.96993 32.3084 8.355 31.9398 7.6091C31.5712 6.86321 31.4408 6.02229 31.5661 5.19998C31.6744 4.38251 32.0358 3.6193 32.5999 3.01713C33.1639 2.41496 33.9023 2.00396 34.7119 1.84164C35.7966 1.62498 36.8813 1.73331 37.8576 2.38331C38.4772 2.74628 38.9862 3.27073 39.3301 3.90048C39.6741 4.53024 39.84 5.24158 39.8102 5.95831L39.7559 6.55414H33.6813H33.6271ZM33.6813 5.09164H37.6407C37.5322 4.22498 36.5559 3.46664 35.5796 3.46664C34.6576 3.52081 33.7356 4.27914 33.6813 5.09164Z" fill="#F1F1F1"/>
<path d="M48.4882 1.95001H50.4949V6.77085C50.6576 7.42085 51.0373 7.85418 51.7424 7.96251C52.2305 8.07085 52.6644 7.96251 53.0983 7.74585C53.281 7.62534 53.4343 7.46547 53.5469 7.27799C53.6596 7.09051 53.7287 6.88019 53.7492 6.66251L53.8034 6.22918V1.95001H55.8102V6.60835C55.8084 7.24434 55.6198 7.86585 55.2678 8.39585C54.9424 9.04585 54.3458 9.47918 53.6407 9.69585C52.556 10.0208 51.4712 10.0208 50.3865 9.58751C49.3017 9.15418 48.7593 8.34168 48.5424 7.20418L48.4882 6.55418V2.16668V2.00418V1.95001Z" fill="#F1F1F1"/>
<path d="M47.078 2.81668L46.1017 4.11668L45.939 3.95418C45.6059 3.71355 45.228 3.54171 44.8275 3.4487C44.4271 3.35569 44.0121 3.34339 43.6068 3.41252L43.0644 3.62918C42.9971 3.67964 42.9424 3.74506 42.9047 3.82028C42.8671 3.89549 42.8475 3.97843 42.8475 4.06252C42.8475 4.14661 42.8671 4.22954 42.9047 4.30476C42.9424 4.37997 42.9971 4.4454 43.0644 4.49585L43.6068 4.71252L44.9627 5.09168C45.5051 5.20002 46.0475 5.36252 46.4271 5.68752C46.6657 5.8529 46.8632 6.07074 47.0042 6.32429C47.1452 6.57784 47.2262 6.86033 47.2407 7.15002C47.2949 8.39585 46.6441 9.31668 45.5051 9.64168C43.7695 10.1834 42.1424 9.96668 40.678 8.82918L40.5695 8.72085L41.5458 7.42085L42.1966 7.85418C42.9062 8.24947 43.7381 8.3654 44.5288 8.17918C44.6916 8.17918 44.8 8.12502 44.9627 8.01668C45.2882 7.80002 45.3424 7.31252 44.9627 7.09585L44.2577 6.77085L42.739 6.39168C42.1966 6.28335 41.7085 6.01252 41.3288 5.63335C41.0577 5.30835 40.8949 4.92918 40.7865 4.55002C40.7322 3.41252 41.2204 2.49168 42.3051 2.11252C43.0572 1.8086 43.8739 1.69891 44.6797 1.79358C45.4855 1.88825 46.2543 2.18424 46.9153 2.65418L47.0238 2.76252L47.078 2.81668Z" fill="#F1F1F1"/>
<path d="M73.9796 12.0792L71.9729 12.6208V12.5125C71.8101 12.0792 71.539 11.8625 71.1593 11.7542L70.6169 11.7H68.122C67.5895 11.7254 67.0613 11.5936 66.6034 11.3208C65.9525 10.8875 65.6813 10.2375 65.6813 9.47916C65.702 9.13527 65.8007 8.80057 65.9698 8.50031C66.1389 8.20005 66.3741 7.94207 66.6576 7.74583L66.7661 7.63749L66.6034 7.47499C66.061 6.93333 65.7356 6.17499 65.7356 5.36249C65.704 4.89285 65.7749 4.42197 65.9435 3.9824C66.1121 3.54284 66.3742 3.14509 66.7118 2.81666C67.2916 2.29653 68.0087 1.95365 68.7779 1.82882C69.5471 1.70399 70.336 1.80245 71.0508 2.11249L71.1593 2.05833C71.2498 1.77076 71.4116 1.51072 71.6297 1.30237C71.8478 1.09402 72.1151 0.94414 72.4068 0.866659C72.8407 0.758325 73.2746 0.812492 73.7627 0.812492V2.59999H73.2203L72.8407 2.70833C72.7154 2.77637 72.6048 2.8684 72.5152 2.97916C72.4068 3.08749 72.4068 3.19583 72.5152 3.35833C72.9887 4.07656 73.1682 4.94881 73.0169 5.79533C72.8655 6.64185 72.3948 7.39813 71.7017 7.90833C70.8707 8.50535 69.8404 8.75773 68.8271 8.61249L68.0678 8.44999L67.8508 8.72083C67.5254 9.09999 67.7424 9.58749 68.2305 9.74999H71.1051C71.6474 9.74999 72.2441 9.91249 72.7322 10.1833C73.4373 10.6167 73.8169 11.2667 73.9796 12.0792ZM69.3695 6.77083C70.4542 6.77083 71.1593 5.90416 70.9966 4.92916C70.9193 4.5615 70.7127 4.23366 70.4142 4.00509C70.1157 3.77652 69.745 3.66237 69.3695 3.68333C68.6644 3.68333 68.1762 3.95416 67.9051 4.60416C67.4712 5.63333 68.122 6.77083 69.3695 6.77083Z" fill="#F1F1F1"/>
<path d="M82.4407 6.60831H76.4746L76.5288 6.82498C76.6562 7.18394 76.8808 7.50058 77.1776 7.73965C77.4745 7.97873 77.8319 8.13087 78.2102 8.17914C78.6438 8.26062 79.0905 8.23935 79.5144 8.11705C79.9383 7.99476 80.3275 7.77484 80.6508 7.47498L80.8678 7.25831L82.2237 8.39581C81.4242 9.314 80.2932 9.87876 79.078 9.96664C78.1559 9.96664 77.2881 9.91248 76.4746 9.42498C75.7754 9.08128 75.1952 8.53655 74.8086 7.86084C74.422 7.18514 74.2466 6.40936 74.3051 5.63331C74.3367 4.692 74.7037 3.79288 75.3401 3.09777C75.9764 2.40266 76.8403 1.95723 77.7763 1.84164C79.0237 1.62498 80.1627 1.89581 81.1932 2.76248C81.9633 3.39963 82.4505 4.31448 82.5491 5.30831V6.60831H82.4407ZM80.3796 5.14581C80.2169 4.17081 79.1864 3.41248 78.1559 3.52081C77.2339 3.62914 76.5288 4.38748 76.4203 5.14581H80.3796Z" fill="#F1F1F1"/>
<path d="M84.2847 7.47503L84.9356 7.90836C85.6451 8.30365 86.477 8.41957 87.2678 8.23336C87.3763 8.23336 87.539 8.17919 87.6475 8.07086C88.0814 7.85419 88.0814 7.36669 87.6475 7.09586L86.9966 6.82503L85.5322 6.44586C85.1525 6.33753 84.7729 6.22919 84.4474 6.01253C84.1557 5.81958 83.9212 5.55187 83.7685 5.23741C83.6159 4.92295 83.5506 4.5733 83.5797 4.22503C83.5797 3.03336 84.2847 2.32919 85.261 2.05836C86.0234 1.79442 86.8398 1.72554 87.6357 1.85801C88.4316 1.99049 89.1815 2.32009 89.8169 2.81669L88.8407 4.11669L88.678 4.00836C88.0191 3.53648 87.2011 3.34196 86.4 3.46669C86.2076 3.50565 86.0238 3.57905 85.8576 3.68336C85.7964 3.73023 85.7458 3.78962 85.7094 3.85756C85.6729 3.92551 85.6514 4.00043 85.6463 4.07734C85.6411 4.15425 85.6525 4.23137 85.6796 4.30354C85.7067 4.37572 85.7489 4.44128 85.8034 4.49586L86.2915 4.76669L87.3763 5.03753C87.8644 5.14586 88.2983 5.25419 88.7322 5.47086C90.4136 6.22919 90.2508 8.34169 89.1119 9.20836C88.678 9.53336 88.1356 9.75003 87.5932 9.85836C86.5085 10.075 85.4237 9.96669 84.339 9.42503L83.4712 8.88336L83.3085 8.77503L84.2847 7.47503Z" fill="#F1F1F1"/>
<path d="M91.878 1.95V0H93.8848V1.95H96V3.79167H93.939V7.15C93.939 7.69167 94.2644 7.9625 94.7526 8.01667C95.1221 8.05619 95.4956 8.00023 95.8373 7.85417H96V9.64167L95.1865 9.9125C94.5898 10.0208 93.9932 9.96667 93.3966 9.80417C93.0187 9.66614 92.6867 9.42586 92.4376 9.1102C92.1886 8.79453 92.0324 8.41591 91.9865 8.01667L91.9322 7.25833V3.79167H90.6848V1.95H91.878Z" fill="#F1F1F1"/>
<path fill-rule="evenodd" clip-rule="evenodd" d="M9.76272 0.433323L14.3729 4.98332C14.5255 5.14428 14.6105 5.35751 14.6105 5.57916C14.6105 5.80081 14.5255 6.01403 14.3729 6.17499L9.76272 10.8333C9.64178 10.9545 9.49809 11.0507 9.33986 11.1163C9.18164 11.1819 9.012 11.2157 8.84068 11.2157C8.66936 11.2157 8.49972 11.1819 8.3415 11.1163C8.18328 11.0507 8.03958 10.9545 7.91865 10.8333L3.30848 6.22916C3.1559 6.0682 3.07086 5.85497 3.07086 5.63332C3.07086 5.41167 3.1559 5.19845 3.30848 5.03749L7.91865 0.433323C8.03958 0.312128 8.18328 0.215967 8.3415 0.150353C8.49972 0.0847396 8.66936 0.0509644 8.84068 0.0509644C9.012 0.0509644 9.18164 0.0847396 9.33986 0.150353C9.49809 0.215967 9.64178 0.312128 9.76272 0.433323ZM6.29153 7.58332L8.62373 9.74999C8.6764 9.81122 8.75001 9.85069 8.83021 9.8607C8.91042 9.87071 8.99149 9.85056 9.05763 9.80416L12.9627 6.01249C13.0161 5.9529 13.0456 5.87577 13.0456 5.79582C13.0456 5.71588 13.0161 5.63874 12.9627 5.57916L12.6915 5.30832C12.6319 5.25503 12.5546 5.22556 12.4746 5.22556C12.3945 5.22556 12.3173 5.25503 12.2576 5.30832L9.00339 8.34166C8.94807 8.38134 8.88168 8.40268 8.81356 8.40268C8.74545 8.40268 8.67906 8.38134 8.62373 8.34166L6.99661 6.82499C6.93695 6.77169 6.85971 6.74223 6.77966 6.74223C6.69962 6.74223 6.62238 6.77169 6.56272 6.82499L6.29153 7.14999C6.23816 7.20958 6.20866 7.28671 6.20866 7.36666C6.20866 7.4466 6.23816 7.52374 6.29153 7.58332Z" fill="#F1F1F1"/>
<path d="M1.89821 4.87497L6.45414 0.379138C6.20551 0.157742 5.88137 0.0399593 5.54841 0.0500355C5.21546 0.0601118 4.89905 0.19728 4.66431 0.433304L0.379561 4.76664C0.258208 4.88741 0.161922 5.03092 0.0962226 5.18894C0.0305234 5.34696 -0.0032959 5.51637 -0.0032959 5.68747C-0.0032959 5.85857 0.0305234 6.02798 0.0962226 6.186C0.161922 6.34402 0.258208 6.48753 0.379561 6.6083L4.71854 10.8333C4.95329 11.0693 5.2697 11.2065 5.60265 11.2166C5.9356 11.2267 6.25975 11.1089 6.50837 10.8875L1.89821 6.2833C1.72598 6.11071 1.62927 5.87697 1.62927 5.6333C1.62927 5.38964 1.72598 5.1559 1.89821 4.9833V4.87497Z" fill="#F1F1F1"/>
</g>
<defs>
<clipPath id="clip0_43_194">
<rect width="96" height="13" fill="white"/>
</clipPath>
</defs>
</svg>

<svg xmlns="http://www.w3.org/2000/svg" width="96" height="13" fill="none" viewBox="0 0 96 13"><g fill="#f1f1f1" clip-path="url(#a)"><path d="M58.088 7.583c-.271-.27-.542-.541-.705-.92-.76-1.625-.217-3.684 1.627-4.55 1.085-.488 2.17-.488 3.254-.055h.163l.054-.054c.271-.758.814-1.083 1.573-1.191L65.14.758V2.6h-.488l-.434.054a1.1 1.1 0 0 0-.38.271v.38a3.41 3.41 0 0 1-2.17 5.2 3.8 3.8 0 0 1-2.06-.055.33.33 0 0 0-.326.108c-.162.217-.27.434-.217.705.109.27.272.379.543.433h2.874c.651 0 1.302.217 1.844.596a2.7 2.7 0 0 1 1.03 1.733l-2.06.542v-.109c-.109-.433-.434-.65-.868-.758h-2.983a2.7 2.7 0 0 1-1.464-.433c-.651-.434-.977-1.084-.922-1.842a2.27 2.27 0 0 1 .976-1.733zm2.658-.866h.434a1.52 1.52 0 0 0 1.203-1.686 1.5 1.5 0 0 0-.281-.698A1.57 1.57 0 0 0 60.8 3.63a1.63 1.63 0 0 0-1.627.975c-.326.975.325 2.167 1.573 2.167zM18.278 1.95h2.332l1.627 5.2 1.627-5.2h2.061l1.627 5.2 1.628-5.2h2.17l-2.713 7.8h-2.115l-1.627-5.308h-.054L23.213 9.75h-2.06zM33.627 6.554c.325.813.814 1.354 1.627 1.517a2.77 2.77 0 0 0 2.766-.813h.055l1.355 1.084-.38.433a4.45 4.45 0 0 1-2.494 1.083q-1.546.244-2.929-.487a4.065 4.065 0 0 1-2.06-4.171 3.95 3.95 0 0 1 3.145-3.358c1.085-.217 2.17-.109 3.146.541a3.96 3.96 0 0 1 1.952 3.575l-.054.596h-6.129m.054-1.462h3.96c-.109-.867-1.085-1.625-2.061-1.625-.922.054-1.844.812-1.899 1.625M48.488 1.95h2.007v4.82c.163.65.542 1.084 1.247 1.193.489.108.922 0 1.356-.217a1.46 1.46 0 0 0 .651-1.083l.054-.434V1.95h2.007v4.658a3.25 3.25 0 0 1-.542 1.788c-.326.65-.922 1.083-1.627 1.3-1.085.325-2.17.325-3.254-.108-1.085-.434-1.628-1.246-1.845-2.384l-.054-.65V1.95M47.078 2.817l-.976 1.3-.163-.163a3.1 3.1 0 0 0-2.332-.541l-.543.216a.543.543 0 0 0 0 .867l.543.217 1.356.379c.542.108 1.084.27 1.464.596a1.9 1.9 0 0 1 .814 1.462c.054 1.246-.597 2.167-1.736 2.492-1.736.541-3.363.325-4.827-.813l-.108-.108.976-1.3.65.433c.71.395 1.542.511 2.333.325.163 0 .271-.054.434-.162.325-.217.38-.704 0-.921l-.705-.325-1.519-.38a2.77 2.77 0 0 1-1.41-.758c-.271-.325-.434-.704-.543-1.083-.054-1.137.434-2.058 1.52-2.437a4.83 4.83 0 0 1 4.61.541l.108.109zM73.98 12.08l-2.007.54v-.107c-.163-.434-.434-.65-.814-.759l-.542-.054h-2.495a2.7 2.7 0 0 1-1.519-.38c-.65-.433-.922-1.082-.922-1.84a2.27 2.27 0 0 1 .977-1.734l.108-.109-.163-.162a3 3 0 0 1-.867-2.113 3.25 3.25 0 0 1 .976-2.545 4.07 4.07 0 0 1 4.339-.705l.108-.054A1.79 1.79 0 0 1 72.407.867c.434-.109.868-.055 1.356-.055V2.6h-.543l-.38.108q-.189.103-.325.271c-.108.108-.108.217 0 .38a3.355 3.355 0 0 1-.813 4.55 3.96 3.96 0 0 1-2.875.703l-.76-.162-.216.27c-.326.38-.109.867.38 1.03h2.874a3.5 3.5 0 0 1 1.627.433c.705.434 1.085 1.084 1.248 1.896m-4.61-5.31c1.084 0 1.79-.866 1.627-1.84a1.57 1.57 0 0 0-1.627-1.247c-.706 0-1.194.271-1.465.921-.434 1.03.217 2.167 1.465 2.167M82.44 6.608h-5.965l.054.217a2.06 2.06 0 0 0 1.681 1.354 2.82 2.82 0 0 0 2.44-.704l.218-.217 1.356 1.138a4.6 4.6 0 0 1-3.146 1.57c-.922 0-1.79-.054-2.603-.541a3.9 3.9 0 0 1-2.17-3.792 3.95 3.95 0 0 1 3.471-3.791c1.248-.217 2.387.054 3.417.92a3.8 3.8 0 0 1 1.356 2.546v1.3zm-2.06-1.462c-.163-.975-1.194-1.734-2.224-1.625-.922.108-1.627.866-1.736 1.625zM84.285 7.475l.65.433c.71.396 1.542.512 2.333.325a.6.6 0 0 0 .38-.162c.433-.217.433-.704 0-.975l-.651-.271-1.465-.38c-.38-.107-.76-.216-1.085-.432a1.95 1.95 0 0 1-.867-1.788c0-1.192.705-1.896 1.681-2.167a4.83 4.83 0 0 1 4.556.759l-.976 1.3-.163-.109a3.1 3.1 0 0 0-2.278-.541 1.6 1.6 0 0 0-.542.216.542.542 0 0 0-.055.813l.489.27 1.084.272c.488.108.922.216 1.356.433 1.682.758 1.519 2.87.38 3.737-.434.325-.976.542-1.519.65a4.92 4.92 0 0 1-3.254-.433l-.868-.542-.163-.108zM91.878 1.95V0h2.007v1.95H96v1.842h-2.061V7.15c0 .542.325.813.814.867.37.04.743-.017 1.084-.163H96v1.788l-.814.27c-.596.109-1.193.055-1.79-.108a2.17 2.17 0 0 1-1.41-1.787l-.054-.759V3.792h-1.247V1.95z"/><path fill-rule="evenodd" d="m9.763.433 4.61 4.55a.866.866 0 0 1 0 1.192l-4.61 4.658a1.3 1.3 0 0 1-1.844 0L3.309 6.23a.866.866 0 0 1 0-1.192L7.918.433a1.3 1.3 0 0 1 1.844 0m-3.471 7.15L8.624 9.75a.326.326 0 0 0 .434.054l3.905-3.792a.325.325 0 0 0 0-.433l-.271-.27a.326.326 0 0 0-.434 0L9.003 8.341a.33.33 0 0 1-.38 0L6.998 6.825a.326.326 0 0 0-.434 0l-.271.325a.325.325 0 0 0 0 .433" clip-rule="evenodd"/><path d="M1.898 4.875 6.454.379a1.303 1.303 0 0 0-1.79.054L.38 4.767a1.3 1.3 0 0 0 0 1.841l4.339 4.225a1.303 1.303 0 0 0 1.79.054l-4.61-4.604a.92.92 0 0 1 0-1.3z"/></g><defs><clipPath id="a"><path fill="#fff" d="M0 0h96v13H0z"/></clipPath></defs></svg>
